!!!!SEGMENT: pl-kk--kk-i-377--002_rozycki-jacek--o-maria-stella-maris.krn
!!!cenid: 16xx:730
!!!COM: Różycki, Jacek
!!!COM-rismID: pe30020620
!!!CDT: ~1635-~1703
!!!CNT: Polish
!!!OTL: O Maria stella maris
!!!PDT:
!!!AGN: Sacred
!!!SMS-siglum: PL-Kk
!!!SMS-shelfmark: Kk.I.377
!!!SMS-shelfwork: 002 W
!!!SMS-variant:
!!!SMS-altvar:
!!!NIFC-rismSourceID: 1001135231
!!!NIFC-islandoraID: pl-kk:6107
!!!URL-pdf-islandora: https://repozytorium.nifc.pl/islandora/object/pl-kk%3A6107/datastream/PDF/view
!!!URL-scan: https://polish.musicsources.pl/pl/lokalizacje/galeria/rekopisy/5989 @EN{Scan on Polish Music Sources Website} @PL{Skany w portalu Dziedzictwo Muzyki Polskiej w otwartym dostępie}
!!!ONB-nifc: UWAGA: utwory w zbiorze: 1. Salve decus, 2. O Maria stella maris. Uwaga: na odwrotach stron inny utwór inną ręką
!!!AIN: 1 alto 1 empty 1 tenor 1 vox
!!!key:
**kern	**text	**text	**text	**text	**kern	**text	**text	**text	**text	**text	**text	**text	**text	**kern	**text	**text	**text	**text	**text	**text	**text	**text	**kern	**text	**text	**text	**text	**text	**text	**text	**text
*part4	*part4	*part4	*part4	*part4	*part3	*part3	*part3	*part3	*part3	*part3	*part3	*part3	*part3	*part2	*part2	*part2	*part2	*part2	*part2	*part2	*part2	*part2	*part1	*part1	*part1	*part1	*part1	*part1	*part1	*part1	*part1
*staff4	*staff4	*staff4	*staff4	*staff4	*staff3	*staff3	*staff3	*staff3	*staff3	*staff3	*staff3	*staff3	*staff3	*staff2	*staff2	*staff2	*staff2	*staff2	*staff2	*staff2	*staff2	*staff2	*staff1	*staff1	*staff1	*staff1	*staff1	*staff1	*staff1	*staff1	*staff1
*Iempty	*	*	*	*	*Itenor	*	*	*	*	*	*	*	*	*Ialto	*	*	*	*	*	*	*	*	*Ivox	*	*	*	*	*	*	*	*
*I"[Basso]	*	*	*	*	*I"Tenore	*	*	*	*	*	*	*	*	*I"Alto	*	*	*	*	*	*	*	*	*I"Canto	*	*	*	*	*	*	*	*
*I'[B.]	*	*	*	*	*I'T.	*	*	*	*	*	*	*	*	*I'A.	*	*	*	*	*	*	*	*	*I'C.	*	*	*	*	*	*	*	*
*clefF4	*	*	*	*	*clefC4	*	*	*	*	*	*	*	*	*clefC3	*	*	*	*	*	*	*	*	*clefC1	*	*	*	*	*	*	*	*
*k[]	*	*	*	*	*k[]	*	*	*	*	*	*	*	*	*k[]	*	*	*	*	*	*	*	*	*k[]	*	*	*	*	*	*	*	*
*d:	*	*	*	*	*d:	*	*	*	*	*	*	*	*	*d:	*	*	*	*	*	*	*	*	*d:	*	*	*	*	*	*	*	*
*M3/2	*	*	*	*	*M3/2	*	*	*	*	*	*	*	*	*M3/2	*	*	*	*	*	*	*	*	*M3/2	*	*	*	*	*	*	*	*
=1	=1	=1	=1	=1	=1	=1	=1	=1	=1	=1	=1	=1	=1	=1	=1	=1	=1	=1	=1	=1	=1	=1	=1	=1	=1	=1	=1	=1	=1	=1	=1
!	!	!	!	!	!	!	!	!	!	!	!	!	!	!	!	!	!	!	!	!	!	!	!LO:TX:t=P:problem=litera "O" wielka, na początku pięciolinii, przed kluczem	!	!	!	!	!	!	!	!
!	!	!	!	!	!LO:TX:t=P:problem=litera "O" wielka, na początku pięciolinii, przed kluczem	!	!	!	!	!	!	!	!	!LO:TX:t=P:problem=litera "O" wielka, na początku pięciolinii, przed kluczem	!	!	!	!	!	!	!	!	!LO:TX:t=P:problem=tekst słowny podpisany z przesunięciem w stos. do nut;\nw odniesieniu do opinii Emilki na problemach podpisuję zgodnie z sensem, a nie ze źródłem.M.S.	!	!	!	!	!	!	!	!
1D\	O	O	O	O	1d\	O	O	O	O	O	E-	Vir-	A-	1a\	O	O	O	O	O	E-	Vir-	A-	1ff\	O	O	O	O	O	E-	Vir-	A-
*	*	*	*	*	*2\right	*	*	*	*	*	*	*	*	*2\right	*	*	*	*	*	*	*	*	*2\right	*	*	*	*	*	*	*	*
!	!	!	!	!	!LO:TX:t=P:problem=2\right&colon; global	!	!	!	!	!	!	!	!	!LO:TX:t=P:problem=2\right&colon; global	!	!	!	!	!	!	!	!	!LO:TX:t=P:problem=2\right&colon; global	!	!	!	!	!	!	!	!
2D/	MA-	Ma-	Ma-	Ma-	2d\	Ma-	Ma-	Ma-	Ma-	Ma-	-ia	-go	-men	2a\	Ma-	Ma-	Ma-	Ma-	Ma-	-ia	-go	-men	2ff\	Ma-	Ma-	Ma-	Ma-	Ma-	-ia	-go	-men
=2	=2	=2	=2	=2	=2	=2	=2	=2	=2	=2	=2	=2	=2	=2	=2	=2	=2	=2	=2	=2	=2	=2	=2	=2	=2	=2	=2	=2	=2	=2	=2
1D\	-RI-	-ri-	-ri-	-ri-	1d\	-ri-	-ri-	-ri-	-ri-	-ri-	er-	A-	a-	1a\	-ri-	-ri-	-ri-	-ri-	-ri-	er-	a-	A-	1ff\	-ri-	-ri-	-ri-	-ri-	-ri-	er-	A-	A-
!LO:TX:t=P:problem=krzyżyk zanotowany pod nutą	!	!	!	!	!	!	!	!	!	!	!	!	!	!	!	!	!	!	!	!	!	!	!	!	!	!	!	!	!	!	!
2C#X/	-A	-a	-a	-a	2e\	-a	-a	-a	-a	-a	-go	-men	-men	2a\	-a	-a	-a	-a	-a	-go	-man	-men	2ee\	-a	-a	-a	-a	-a	-go	-men	-men
=3	=3	=3	=3	=3	=3	=3	=3	=3	=3	=3	=3	=3	=3	=3	=3	=3	=3	=3	=3	=3	=3	=3	=3	=3	=3	=3	=3	=3	=3	=3	=3
1D\	Stel-	ſplen-	glo-	Tu	1d\	stel-	splen-	glo-	tu	Vir-	o	et	o	1a\	stel-	splen-	Glo-	tu	Vir-	o	O	o	1ff\	stel-	splen-	Glo-	tu	Vir-	o	O	o
2BB-X/	-la	-dor	-ri-	es	2d\	-la	-dor	-ri-	es	-go	Ma-	Ma-	Ma-	2g\	-la	-dor	-ri-	es	-go	Ma-	Ma-	Ma-	2dd\	-la	-dor	-ri-	es	-go	Ma-	Ma-	Ma-
=4	=4	=4	=4	=4	=4	=4	=4	=4	=4	=4	=4	=4	=4	=4	=4	=4	=4	=4	=4	=4	=4	=4	=4	=4	=4	=4	=4	=4	=4	=4	=4
1AA/	ma-	ca(e)-	-o-	il-	1e\	ma-	ca(e)-	-o-	il-	pi-	-ri-	-ri-	-ri-	1a\	ma-	ca(e)-	-o-	il-	pi-	-ri-	-ri-	-ri-	1cc#X\	ma-	ca(e)-	-o-	il-	pi-	-ri-	-ri-	-ri-
2AA/	-ris	-li	-sa	-la	2e,\	-ris	-li,	-ſa,	-la,	-a,	-a,	-a,	-a,	2a,\	-ris,	-li,	-sa,	-la.	-a,	-a,	-a,	-a	2cc#,\	-ris,	-li,	-sa,	-la,	-a,	-a,	-a,	-a,
=5	=5	=5	=5	=5	=5	=5	=5	=5	=5	=5	=5	=5	=5	=5	=5	=5	=5	=5	=5	=5	=5	=5	=5	=5	=5	=5	=5	=5	=5	=5	=5
!	!	!	!	!	!LO:TX:t=P:problem=brak kreski taktowej	!	!	!	!	!	!	!	!	!	!	!	!	!	!	!	!	!	!	!	!	!	!	!	!	!	!
1FF#X/	ca(e)-	co-	Vir-	Sa-	1d\	ca(e)-	co-	Vir-	Sa-	Sur-	In-	Noci-	Coe-	1a\	ca(e)-	cor-	Vir-	Sa-	Sur-	in-	Nos-	Ca(e)-	1dd\	ca(e)-	co-	Vir-	Sa-	Sur-	in-	Nos-	Ca(e)-
2FF#/	-li	-rus-	-go	-lo-	2d\	-li	-ruſ-	-go	-lo-	-dis	-ter	-trum	-li	2a\	-li	-rus-	-go	-lo-	-dis	-ter	-trum	-li	(2dd\	-li	-ru-	-go	-lo-	-dis	-ter	-trum	-li
=6	=6	=6	=6	=6	=6	=6	=6	=6	=6	=6	=6	=6	=6	=6	=6	=6	=6	=6	=6	=6	=6	=6	=6	=6	=6	=6	=6	=6	=6	=6	=6
1GG/	ju-	.	dul-	-mo-	1d\	iu-	.	dul-	-mo-	au-	om-	es-	mun-	1g\	iu-	.	dul-	-mo-	au-	om-	es-	mun-	1b-X\)	iu-	.	dul-	-mo-	au-	om-	es-	mun-
2AA/	-bar	-cas	-cis	-nis	2c\	-bar	-cas	-cis	-nis	-ris,	-nes	-to	-di	2f\	-bar	-cas	-cis	-nis	-ris,	-nes	-to	-di	2a\	-bar	-scas	-cis	-nis	-ris,	-nes	-to	-di
=7	=7	=7	=7	=7	=7	=7	=7	=7	=7	=7	=7	=7	=7	=7	=7	=7	=7	=7	=7	=7	=7	=7	=7	=7	=7	=7	=7	=7	=7	=7	=7
1BB-X/	et	et	et	Cy-	1d\	et	et	et	ci-	lin-	ſin-	tu	Hie-	1f\	et	ut	et	ci-	lin-	sin-	tu	Hie-	1g\	et	ut	et	ci-	lin-	sin-	tu	Hie-
2C/	au-	Sol	for-	-no-	2c\	au-	sol	for-	-no-	-gua	-gu-	sol	-rar-	2e\	au-	sol	for-	-no-	-gua	-gu-	sol-	-rar-	2g/	au-	sol	for-	-no-	-gua	-gu-	sol-	-rar-
=8	=8	=8	=8	=8	=8	=8	=8	=8	=8	=8	=8	=8	=8	=8	=8	=8	=8	=8	=8	=8	=8	=8	=8	=8	=8	=8	=8	=8	=8	=8	=8
1FF/	-ro-	lu-	-mo-	-sa-	1c\	-ro-	lu-	-mo-	-ſu-	mu-	-la-	a-	-chi-	1f\	-ro-	lu-	-mo-	-su-	mu-	-la-	-a-	-chi-	1f/	-ro-	lu-	-mo-	-ſu-	mu-	-la-	-a-	-chi-
2FF/	-ra	-na	-sa	-ra	2c,\	-ra	-na,	-sa	-ra,	-tis,	-ris,	-men.	-a,	2f,\	-ra	-na,	-sa,	-ra,	-tis,	-ris,	-men,	-a,	2f,/	-ra,	-na,	-sa,	-ra,	-tis,	-ris,	-me(n),	-a,
=9	=9	=9	=9	=9	=9	=9	=9	=9	=9	=9	=9	=9	=9	=9	=9	=9	=9	=9	=9	=9	=9	=9	=9	=9	=9	=9	=9	=9	=9	=9	=9
1F\	a-	a-	a-	per	1c\	a-	A-	A-	Per	Greſ-	Nos	NO-	Nos	1f\	a-	a-	a-	per	greſ-	Nos	No-	Nos	1a\	a-	a-	a-	Per	Greſ-	Nos	No-	Nos
*2\right	*	*	*	*	*	*	*	*	*	*	*	*	*	*	*	*	*	*	*	*	*	*	*	*	*	*	*	*	*	*	*
!LO:TX:t=P:problem=2\right&colon; global	!	!	!	!	!	!	!	!	!	!	!	!	!	!	!	!	!	!	!	!	!	!	!	!	!	!	!	!	!	!	!
2E\	-ve	-ve	-ve	quam	2e\	-ue	-ue	-ue	quam	-(sus)	ab	-MEN	com-	2g\	-ue	-ue	-ue	quam	-s(us)	ab	-men	com-	2cc\	-ue	-ue	-ue	quam	-sus	ab	-men	com-
=10	=10	=10	=10	=10	=10	=10	=10	=10	=10	=10	=10	=10	=10	=10	=10	=10	=10	=10	=10	=10	=10	=10	=10	=10	=10	=10	=10	=10	=10	=10	=10
1F\	/a-	a-	/a-	Du-	1c\	a-	a-	a-	Du-	clau-	hos-	tu-	-men-	1f\	a-	a-	a-	Du-	clau-	hos-	tu-	-men-	1cc\	a-	a-	a-	Du-	clau-	hos-	tu-	-men-
2A\	-ve/	-ve	-ve/	-ces	2c\	-ue	-ve	-ue	-ces	-dis	-te,	-u(m)	-da	2e\	-ue	-ue	-ue	-ces	-dis	-te,	-um	-da	2cc\	-ue	-ue	-ue	-ces	-dis	-te,	-u(m)	-da
=11	=11	=11	=11	=11	=11	=11	=11	=11	=11	=11	=11	=11	=11	=11	=11	=11	=11	=11	=11	=11	=11	=11	=11	=11	=11	=11	=11	=11	=11	=11	=11
1F\	De-	Vir-	ru-	at-	1c\	De-	Vir-	ru-	at-	lu-	et	ſit	Na-	1f\	De-	Vir-	rub-	at-	lu-	et	sit	Na-	1dd\	De-	Vir-	rub-	at-	lu-	et	sit	Na-
2G\	-i	-go	-bus	-q(ue)	2B\	-i	-go	-bus	-q(ue)	-me(n)	aſ-	No-	-to	2d\	-i	-go	-(us)	-q(ue)	-men	a-	no-	-to	2dd\	-i	-go	-(us)	-q(ue)	-me(n)	a-	no-	-to
!!linebreak:original
=12	=12	=12	=12	=12	=12	=12	=12	=12	=12	=12	=12	=12	=12	=12	=12	=12	=12	=12	=12	=12	=12	=12	=12	=12	=12	=12	=12	=12	=12	=12	=12
1C/	Ma-	Pa-	ar-	Re-	1c\	Ma-	pa-	ar-	Re-	ca(e)-	-pes-	-bis-	tu-	1e\	Ma-	pa-	ar-	Re-	ca(e)-	-pes-	-bis-	tu-	1cc\	Ma-	pa-	ar-	Re-	ca(e)-	-pes-	-biſ-	tu-
2C/	-ter	-rens,	-dens	-ges	2c,\	-ter,	-rens,	-dens,	-ges,	-cis,	-te,	-cu(m),	-o.	2e,\	-ter,	-tens,	-dens,	-ges,	-cis.	-te,	-cum,	-o.	2cc,\	-ter,	-tens,	-dens,	-ges,	-cis,	-te,	-cum,	-o.
=13	=13	=13	=13	=13	=13	=13	=13	=13	=13	=13	=13	=13	=13	=13	=13	=13	=13	=13	=13	=13	=13	=13	=13	=13	=13	=13	=13	=13	=13	=13	=13
!	!	!	!	!	!	!	!	!	!	!	!	!	!	!	!	!	!	!	!	!	!	!	!LO:TX:t=P:problem=brak kreski taktowej	!	!	!	!	!	!	!	!
1AA/	Vir-	ful-	pa-	re-	1c\	Vir-	Ful-	Pa-	Re-	Con-	Ma-	In-	Dul-	1e\	Vir-	ful-	Pa-	re-	con-	ma-	in	Dul-	1ee\	Vir-	ful-	Pa-	re-	Con-	ma-	In	Dul-
2BB/	-go	-gens	-ra-	-gnant	2d\	-go	-gens	-ra-	-gnant	-so-	-la	-vi-	-ci	2g#X\	-go	-gens	-ra-	-gnant	-so-	-la	Vi-	-ci	2dd\	-go	-gens	-ra-	-gnant	-so-	-la	vi-	-ci
=14	=14	=14	=14	=14	=14	=14	=14	=14	=14	=14	=14	=14	=14	=14	=14	=14	=14	=14	=14	=14	=14	=14	=14	=14	=14	=14	=14	=14	=14	=14	=14
1C/	pul-	stel-	-di-	et	1e\	pul-	ſtel-	-di-	et	-la-	mir-	.	Je-	1a\	pul-	stel-	-di-	et	-la-	mor-	.	Je-	1cc\	pul-	stel-	-di-	et	-la-	mor-	.	Je-
2F\	-chra	-la	-ſi	dant	2f\	-chra	-la	-si	dant	-trix	-re-	-ta	-ſu	2a\	-chra	-la	-si	dant	-trix	-te	-ta	-su	2cc\	-chra	-la	-si-	dant	-trix	-te	-ta	-ſu
=15	=15	=15	=15	=15	=15	=15	=15	=15	=15	=15	=15	=15	=15	=15	=15	=15	=15	=15	=15	=15	=15	=15	=15	=15	=15	=15	=15	=15	=15	=15	=15
1D\	et	ma-	flos	jus-	1f\	et	ma-	flos	Ius-	af-	-q(ue)	quam	O	1a\	et	ma-	flos	ius-	aff-	q(ue)	quam	o	1b\	et	ma-	-flos	iu-	aff-	que	quam	o
2E\	de-	-tu-	et	-ta	2e\	de-	-tu-	et	-ta	-fli-	ſer-	in	MA-	2g#X\	de-	-tu-	et	-ta	-lic-	ser-	in	Ma-	2b\	de-	-tu-	et	-sta	-lic-	ser-	in	No-
=16	=16	=16	=16	=16	=16	=16	=16	=16	=16	=16	=16	=16	=16	=16	=16	=16	=16	=16	=16	=16	=16	=16	=16	=16	=16	=16	=16	=16	=16	=16	=16
1AA/	-co-	-ti-	Ro-	ju-	1e\	-co-	-ti-	Ro-	Iu-	-cto-	-va-	mor-	-RI-	1a\	-co-	-ti-	ro-	Iu-	-tu-	-ua-	mor-	-ri-	1cc#X\	-co-	-ti-	Ro-	Iu-	-tu-	-ua-	mor-	-a-
2AA/	-ra	-na	-sa	-ra,,	2e,\	-ra	-na	-ſa.	-ra.	-ru(m).	-ris	-te,	-A	2a,\	-ra	-na	-sa.	-ra.	-ru(m).	-ris.	-te.	-a	2cc#\	-ra	-na	-sa.	-ra.	-rum	-ris.	-te	-na
=17	=17	=17	=17	=17	=17	=17	=17	=17	=17	=17	=17	=17	=17	=17	=17	=17	=17	=17	=17	=17	=17	=17	=17	=17	=17	=17	=17	=17	=17	=17	=17
1D\	Vir-	ful-	Pa-	re-	1d\	/Vir-	/Ful-	/Pa-	/Re-	/Con-	/Ma-	/In	/Dul-	2a\	/Vir-	/ful-	/Pa-	/re-	/con-	/ma-	/in	/Dul-	1ff\	/Vir-	/ful-	/Pa-	/re-	/Con-	/ma-	/In	/Dul-
.	.	.	.	.	.	.	.	.	.	.	.	.	.	(2f\	-go	-gens	-ra-	-gnant	-so-	-la	.	-ci	.	.	.	.	.	.	.	.	.
2E\	-go	-gens	-ra-	-gnant	2c#X\	-go	-gens	-ra-	-gnant	-so-	-la	.	-ci	2g\)	.	.	.	et	.	.	.	.	2ee\	-go	-gens	-ra-	-gnant	-so-	-la	.	-ci
=18	=18	=18	=18	=18	=18	=18	=18	=18	=18	=18	=18	=18	=18	=18	=18	=18	=18	=18	=18	=18	=18	=18	=18	=18	=18	=18	=18	=18	=18	=18	=18
1F\	pul-	stel-	-di-	et	1d\	pul-	ſtel-	-di-	et	-la-	mir-	vi-	Je-	1f\	pul-	stel-	-di-	et	-la-	mor-	Vi-	Je-	1dd\	pul-	stel-	-di-	et	-la-	mor-	vi-	Je-
2B-X\	-chra	-la	-ſi	dant	2d\	-chra	-la	-si	dant	-trix	-re-	-ta	-ſU	2g\	-chra	-la	-si	dant	-trix	-te	-ta	-su	2dd\	-chra	-la	-si	dant	-trix	-te	-ta	-ſu
=19	=19	=19	=19	=19	=19	=19	=19	=19	=19	=19	=19	=19	=19	=19	=19	=19	=19	=19	=19	=19	=19	=19	=19	=19	=19	=19	=19	=19	=19	=19	=19
1G\	et	ma-	flos	jus-	1e\	et	ma-	flos	Ju-	af-	-q(ue)	quam	O	1g\	et	ma-	flos	ius-	af-	q(ue)	quam	O	1dd\	et	ma-	flos	iu-	af-	que	quam	i
2A\	de-	-tu-	et	-ta	2e\	de-	-tu-	et	-sta	-flic-	ſer-	in	MA-	2e\	de-	-tu-	et	-ta	-flic-	ser-	in	Ma-	2cc#X\	de-	-tu-	et	-sta	-flic-	ser-	in	No-
=20	=20	=20	=20	=20	=20	=20	=20	=20	=20	=20	=20	=20	=20	=20	=20	=20	=20	=20	=20	=20	=20	=20	=20	=20	=20	=20	=20	=20	=20	=20	=20
1D\	-co-	-ti-	Ro-	ju-	1d\	-co-	-ti-	Ro-	Ju-	-to-	-ua-	mor-	-RI-	1f#X\	-co-	-ti-	ro-	Iu-	-to-	-ua-	mor-	-ri-	1dd\	-co-	-ti-	Ro-	Iu-	-to-	-ua-	mor-	-a-
2D/	-ra	-na	-sa	-ra.	2d\	-ra/	-na/	-ſa./	-ra./	-ru(m)./	-ris/	-te,/	-A/	2f#\	-ra/	-na/	-sa.	-ra.	-tu(m).	-ris.	-te.	-a/	2dd\	-ra/	-na/	-sa./	-ra./	-rum/	-ris./	-te	-na/
==	==	==	==	==	==	==	==	==	==	==	==	==	==	==	==	==	==	==	==	==	==	==	==	==	==	==	==	==	==	==	==
*-	*-	*-	*-	*-	*-	*-	*-	*-	*-	*-	*-	*-	*-	*-	*-	*-	*-	*-	*-	*-	*-	*-	*-	*-	*-	*-	*-	*-	*-	*-	*-
!!!system-decoration: [(s1,s2,s3,s4)]
!!!EED: Leszek Kubiak
!!!EEV: 2021-01-25
!!!ENC: Mateusz Solarz
!!!END: 2021-01-25
!!!YEC: Copyright 2022 Narodowy Instytut Fryderyka Chopina (https://polishscores.org)
!!!YEM: Licence CC BY 4.0 (https://creativecommons.org/licenses/by/4.0)
